!!! OTL: Berkowitz245
!!! Chapter: 1
!!! Section: II
!!! Page: 56
!!! Mode: 
!!! Encoder: DJB
**kern
*staff1
*I"Piano
=1-
*clefF4
*k[b-e-a-d-g-]
*D-:
*M4/4
4r
4r
4r
8F\L
8G-\J
=2
[2A-\
8A-\L]
8F\
8G-\
8Gn\J
=3
4A-\
4d-\
4c\
4B-\
=4
[2E-\
8E-\L]
8Dn\
8E-\
8En\J
=5
2F\
8r
8Dn\L
8E-\
8F\J
=6
[2G-\
8G-\L]
8E-\
8F\
8G-\J
=7
8A-\L
8Gn\
8A-\
8An\J
2B-\
=8
!!linebreak:original
4r
[4AA-/
8AA-/L]
8AAn/
8BB-/
8C/J
=9
2E-\
4D-\
4r
==
*-
